src/app/assets/images/polygon-migration-banner-light-green.svg

<svg width="490" height="250" viewBox="0 0 490 250" fill="none" xmlns="http://www.w3.org/2000/svg">
	<path
		d="M303.07 202.234L374.553 243.541C377.594 245.296 381.043 246.221 384.553 246.221C388.064 246.221 391.513 245.296 394.553 243.541L470.567 199.654C473.608 197.899 476.132 195.374 477.888 192.334C479.643 189.293 480.567 185.845 480.567 182.334V94.5611C480.567 91.0503 479.643 87.6013 477.888 84.5608C476.133 81.5203 473.608 78.9955 470.567 77.2401L427.5 52.375M271.5 184L292.5 196.129"
		stroke="#5452CE" stroke-width="2" stroke-linecap="round" />
	<path
		d="M308.09 175.611V105.998C308.09 102.487 309.015 99.0385 310.77 95.9982C312.525 92.9579 315.05 90.4333 318.09 88.6779L374.554 56.0779C377.595 54.3226 381.044 53.3984 384.554 53.3984C388.065 53.3984 391.514 54.3226 394.554 56.0779L451.018 88.6779C454.059 90.4333 456.583 92.9579 458.339 95.9982C460.094 99.0385 461.018 102.487 461.018 105.998V145.859M289.07 171.233L374.554 221.118C377.595 222.873 381.044 223.797 384.554 223.797C388.065 223.797 391.514 222.873 394.554 221.118L420 206.427M433.107 198.859L451.018 188.518C454.059 186.763 456.583 184.238 458.339 181.198C460.094 178.157 461.018 174.709 461.018 171.198V158.859"
		stroke="#5452CE" stroke-width="2" stroke-linecap="round" />
	<path
		d="M390.5 245.359C381.5 248.359 374.742 249.691 368.554 246.118L338.326 228.478M321.102 218.427C301.411 206.934 274.07 191.234 274.07 191.234"
		stroke="#5452CE" stroke-width="2" stroke-linecap="round" />
	<path fill-rule="evenodd" clip-rule="evenodd"
		d="M386.107 117.853L328 179L386.107 85L443.79 179L386.107 117.853ZM359.927 159.376L369.213 149.564H402.841L412.127 159.376H359.927ZM375.821 142.736L386.093 132.212L396.223 142.736H375.821Z"
		fill="#D6D5FF" />
	<path
		d="M386.107 117.853L386.834 117.167L386.109 116.398L385.382 117.164L386.107 117.853ZM328 179L327.149 178.474L328.725 179.689L328 179ZM386.107 85L386.959 84.477L386.11 83.0931L385.256 84.4742L386.107 85ZM443.79 179L443.063 179.686L444.642 178.477L443.79 179ZM359.927 159.376L359.201 158.689L357.604 160.376H359.927V159.376ZM369.213 149.564V148.564H368.783L368.487 148.876L369.213 149.564ZM402.841 149.564L403.567 148.876L403.271 148.564H402.841V149.564ZM412.127 159.376V160.376H414.45L412.853 158.689L412.127 159.376ZM375.821 142.736L375.105 142.037L373.447 143.736H375.821V142.736ZM386.093 132.212L386.814 131.519L386.098 130.776L385.377 131.514L386.093 132.212ZM396.223 142.736V143.736H398.573L396.943 142.042L396.223 142.736ZM385.382 117.164L327.275 178.311L328.725 179.689L386.831 118.542L385.382 117.164ZM328.851 179.526L386.957 85.5258L385.256 84.4742L327.149 178.474L328.851 179.526ZM385.254 85.523L442.938 179.523L444.642 178.477L386.959 84.477L385.254 85.523ZM444.517 178.314L386.834 117.167L385.379 118.539L443.063 179.686L444.517 178.314ZM360.654 160.063L369.94 150.251L368.487 148.876L359.201 158.689L360.654 160.063ZM369.213 150.564H402.841V148.564H369.213V150.564ZM402.115 150.251L411.401 160.063L412.853 158.689L403.567 148.876L402.115 150.251ZM412.127 158.376H359.927V160.376H412.127V158.376ZM376.536 143.434L386.809 132.911L385.377 131.514L375.105 142.037L376.536 143.434ZM385.373 132.906L395.502 143.429L396.943 142.042L386.814 131.519L385.373 132.906ZM396.223 141.736H375.821V143.736H396.223V141.736Z"
		fill="#5452CE" />
	<path
		d="M95.3828 131.737C95.3828 131.737 118.021 118.228 132.214 93.6454C139.472 81.2386 146.099 68.4733 152.07 55.3984C152.07 55.3984 128.87 100.547 106.14 96.3984C97.2688 121.326 95.3828 131.737 95.3828 131.737Z"
		fill="#FEB8AE" />
	<path
		d="M168.571 120.508C168.571 120.508 191.829 128.508 220.284 69.4922C217.833 76.3342 209.884 95.2202 196.636 118.162C179.701 147.495 160.401 165.501 160.401 165.501C160.401 165.501 152.633 163.156 168.571 120.508Z"
		fill="#D6D5FF" />
	<path
		d="M267.815 97.6797C267.815 97.6797 251.829 134.969 238.844 124.728C237.57 126.935 233.697 139.359 234.063 149.602C234.241 154.566 237.271 145.073 240.219 147.602C244.719 146.102 246.719 144.602 249.645 143.602C253.473 135.959 257.446 127.17 260.145 119.962C266.551 102.852 267.815 97.6797 267.815 97.6797Z"
		fill="#D6D5FF" />
	<path d="M89.1406 127.973L95.5297 83.75" stroke="#DE5846" stroke-width="2" stroke-linecap="round" />
	<path
		d="M93.398 66.6184C91.689 77.3744 86.8081 115.318 85.5661 125.162C84.3241 135.006 92.33 134.196 98.858 129.126C105.386 124.056 127.014 110.092 151.07 55.3984"
		stroke="#DE5846" stroke-width="2" stroke-linecap="round" />
	<path
		d="M60.5337 144.098C60.1857 150.733 74.1137 172.268 103.834 156.485C133.554 140.702 155.778 108.73 176.28 66.9849C189.293 40.4899 187.564 21.5659 179.7 14.7969"
		stroke="#DE5846" stroke-width="2" stroke-linecap="round" />
	<path
		d="M92.0508 166.207C92.0508 166.207 128.405 162.924 168.237 93.9327C183.982 66.6617 199.512 26.2428 179.143 14.4818C158.774 2.72075 115.654 48.3908 95.5148 127.202"
		stroke="#DE5846" stroke-width="2" stroke-linecap="round" />
	<path
		d="M116.987 159.732C116.987 159.732 114.687 175.468 125.179 181.526C135.671 187.584 175.358 172.441 220.602 68.9375"
		stroke="#DE5846" stroke-width="2" stroke-linecap="round" />
	<path
		d="M94.1404 171.025C94.1404 171.025 91.7845 194.149 108.579 203.846C124.457 213.013 155.806 225.846 212.231 143.062"
		stroke="#DE5846" stroke-width="2" stroke-linecap="round" />
	<path
		d="M222.25 127.762C226.475 120.911 230.33 113.838 233.797 106.574C247.776 77.6959 261.062 38.1359 246.835 29.9219"
		stroke="#5452CE" stroke-width="2" stroke-linecap="round" />
	<path
		d="M135.398 216.654C135.398 216.654 178.574 215.033 231.244 123.805C241.367 106.271 271.081 43.9224 246.833 29.9234C240.214 26.102 231.334 29.1926 221.717 36.9974M157.955 158.161C162.26 130.946 174.754 100.921 189.535 76.6016"
		stroke="#5452CE" stroke-width="2" stroke-linecap="round" />
	<path
		d="M163.078 207.124C163.078 207.124 200.778 267.446 269.267 164.559C298.597 120.501 297.079 83.4215 289.095 78.8125"
		stroke="#5452CE" stroke-width="2" stroke-linecap="round" />
	<path
		d="M207.719 227.798C207.719 227.798 239.419 224.498 275.254 167.368C304.903 120.104 301.64 86.0455 289.654 79.1275C267.8 66.5144 232.712 118.878 234.043 149.602"
		stroke="#5452CE" stroke-width="2" stroke-linecap="round" />
	<path
		d="M183.719 189.359C184.396 195.458 195.476 201.299 211.215 191.701M268.132 97.125C262.039 115.227 255.371 131.226 249.215 143.602"
		stroke="#5452CE" stroke-width="2" stroke-linecap="round" />
	<path
		d="M63.6979 88.0346C48.8089 79.4386 30.6502 83.0162 23.1388 96.0256C15.6274 109.035 21.6084 126.55 36.4983 135.148C51.3882 143.746 69.5464 140.166 77.0574 127.157C84.5684 114.148 78.5854 96.629 63.6979 88.0346Z"
		stroke="#DE5846" stroke-width="2" stroke-linecap="round" />
	<path
		d="M62.3648 89.7286C48.9683 81.9943 32.6306 85.2131 25.8721 96.9185C19.1137 108.624 24.4953 124.383 37.8918 132.117C51.2882 139.852 67.626 136.633 74.3844 124.927C81.1428 113.222 75.7603 97.4634 62.3648 89.7286Z"
		stroke="#8CC69D" stroke-width="2" stroke-linecap="round" />
	<path
		d="M41.065 129.073C41.6612 126.787 46.9978 104.217 46.9978 104.217C47.0819 103.949 47.1329 103.8 47.5733 104.02C47.5733 104.02 71.0048 117.422 71.4197 117.591C71.6822 117.697 71.7444 117.597 71.4366 117.338C69.448 115.672 43.4797 95.6993 43.4797 95.6993C43.3091 95.5514 43.2062 95.6274 43.1847 95.7958C43.1847 95.7958 40.7624 128.012 40.79 129.046C40.7946 129.218 40.8562 129.326 40.9261 129.307C40.9748 129.294 41.0259 129.222 41.065 129.073ZM47.4014 119.87C47.4968 119.836 59.8271 115.588 59.9404 115.548C59.9671 115.536 59.9897 115.516 60.0054 115.492C60.0212 115.467 60.0294 115.439 60.0291 115.409C60.0288 115.38 60.02 115.352 60.0037 115.328C59.9874 115.304 59.9644 115.285 59.9375 115.274C59.8175 115.2 56.7836 113.387 56.6476 113.31C56.5877 113.276 56.5209 113.255 56.452 113.249C56.3831 113.243 56.3137 113.253 56.2485 113.276C56.1272 113.318 48.2371 115.963 48.1112 116.007C48.0385 116.041 47.9748 116.091 47.925 116.154C47.8752 116.217 47.8408 116.29 47.8245 116.368C47.7943 116.525 47.3365 119.454 47.2941 119.627C47.2518 119.801 47.3019 119.896 47.3917 119.872L47.4014 119.87Z"
		fill="#FFE0DA" />
	<path
		d="M48.0147 113.075C47.8769 113.123 47.8048 113.095 47.8781 112.787C47.9514 112.478 48.8441 108.578 48.8439 108.371C48.8437 108.163 49.0117 108.021 49.3316 108.206C49.6514 108.391 53.4193 110.532 53.6221 110.646C53.8249 110.759 54.03 111.004 53.8514 111.065L48.0147 113.075Z"
		fill="#FFE0DA" />
	<path
		d="M41.065 129.073C41.6612 126.787 46.9978 104.217 46.9978 104.217C47.0819 103.949 47.1329 103.8 47.5733 104.02C47.5733 104.02 71.0048 117.422 71.4197 117.591C71.6822 117.697 71.7444 117.597 71.4366 117.338C69.448 115.672 43.4797 95.6993 43.4797 95.6993C43.3091 95.5514 43.2062 95.6274 43.1847 95.7958C43.1847 95.7958 40.7624 128.012 40.79 129.046C40.7946 129.218 40.8562 129.326 40.9261 129.307C40.9748 129.294 41.0259 129.222 41.065 129.073ZM47.4014 119.87C47.4968 119.836 59.8271 115.588 59.9404 115.548C59.9671 115.536 59.9897 115.516 60.0054 115.492C60.0212 115.467 60.0294 115.439 60.0291 115.409C60.0288 115.38 60.02 115.352 60.0037 115.328C59.9874 115.304 59.9644 115.285 59.9375 115.274C59.8175 115.2 56.7836 113.387 56.6476 113.31C56.5877 113.276 56.5209 113.255 56.452 113.249C56.3831 113.243 56.3137 113.253 56.2485 113.276C56.1272 113.318 48.2371 115.963 48.1112 116.007C48.0385 116.041 47.9748 116.091 47.925 116.154C47.8752 116.217 47.8408 116.29 47.8245 116.368C47.7943 116.525 47.3365 119.454 47.2941 119.627C47.2518 119.801 47.3019 119.896 47.3917 119.872L47.4014 119.87Z"
		stroke="#DE5846" stroke-width="2" />
	<path
		d="M48.0147 113.075C47.8769 113.123 47.8048 113.095 47.8781 112.787C47.9514 112.478 48.8441 108.578 48.8439 108.371C48.8437 108.163 49.0117 108.021 49.3316 108.206C49.6514 108.391 53.4193 110.532 53.6221 110.646C53.8249 110.759 54.03 111.004 53.8514 111.065L48.0147 113.075Z"
		stroke="#DE5846" stroke-width="2" />
	<path
		d="M22.9631 96.2772C22.9631 96.2772 19.9022 101.177 19.4019 102.042C16.307 107.494 15.3713 113.91 16.7799 120.019M19.5096 127.514C22.542 133.229 27.1381 137.962 32.7608 141.162M36.5637 143.068C50.6177 149.093 66.438 145.09 73.3208 133.173C73.8182 132.365 74.2488 131.519 74.6081 130.641"
		stroke="#DE5846" stroke-width="2" stroke-linecap="round" />
	<path
		d="M204.699 180.463C200.169 177.598 208.439 167.042 223.173 156.885C237.906 146.727 253.522 140.816 258.053 143.68C262.584 146.545 254.313 157.101 239.579 167.259C224.846 177.416 209.23 183.325 204.699 180.463Z"
		stroke="#5452CE" stroke-width="2" stroke-linecap="round" />
	<path
		d="M255.485 147.043C254.164 151.383 247.416 158.413 237.503 165.248C226.277 172.987 214.497 178.06 208.359 178.118"
		stroke="#8CC69D" stroke-width="2" stroke-linecap="round" />
	<path
		d="M204.246 180.122C204.246 180.122 211.604 187.844 213.439 189.026C215.104 190.098 218.25 189.92 222.301 188.732M229.6 185.943C235.193 183.333 240.551 180.246 245.614 176.716M249.822 173.665C258.994 166.661 264.577 159.888 264.244 156.314C264.169 155.507 259.027 144.74 259.027 144.74"
		stroke="#5452CE" stroke-width="2" stroke-linecap="round" />
	<path
		d="M192.87 37.001C203.299 30.9067 216.07 33.3511 221.396 42.4657C226.721 51.5804 222.584 63.9064 212.154 70.0006C202.911 75.4027 191.827 74.096 185.719 67.3827"
		stroke="#5452CE" stroke-width="2" stroke-linecap="round" />
	<path
		d="M186.02 63.1147C190.569 70.9001 201.48 72.9904 210.391 67.7836C219.301 62.5769 222.835 52.0448 218.285 44.2593C213.736 36.4739 202.824 34.3836 193.914 39.5904C193.141 40.0423 192.408 40.5343 191.718 41.0612"
		stroke="#8CC69D" stroke-width="2" stroke-linecap="round" />
	<path
		d="M192.281 30.8243C202.136 26.5398 213.488 29.2385 218.367 37.5873C219.097 38.8331 220.431 40.9634 220.431 40.9634"
		stroke="#5452CE" stroke-width="2" stroke-linecap="round" />
	<path d="M249.468 223.17C240.545 229.262 231.068 233.761 221.424 236.65" stroke="#8CC69D" stroke-width="2"
		stroke-linecap="round" />
	<path d="M245.834 218.515C245.834 218.515 212.782 251.847 163.953 233.008" stroke="#8CC69D" stroke-width="2"
		stroke-linecap="round" />
	<path
		d="M245.761 218.544L243.972 216.208C243.837 216.031 243.75 215.822 243.721 215.601C243.692 215.381 243.722 215.156 243.807 214.951C243.893 214.745 244.031 214.565 244.207 214.43C244.384 214.295 244.593 214.208 244.814 214.179L256.25 212.681C256.47 212.653 256.694 212.682 256.9 212.768C257.105 212.853 257.284 212.991 257.42 213.167C257.555 213.344 257.642 213.553 257.671 213.773C257.7 213.994 257.67 214.218 257.586 214.424L253.163 225.076C253.078 225.281 252.94 225.461 252.763 225.596C252.586 225.732 252.377 225.818 252.156 225.847C251.936 225.876 251.711 225.846 251.506 225.761C251.3 225.676 251.12 225.538 250.985 225.361L249.338 223.211"
		stroke="#8CC69D" stroke-width="2" stroke-linecap="round" />
	<path d="M116.782 40.2972C122.654 32.3272 129.453 25.4029 136.853 19.6765" stroke="#8CC69D" stroke-width="2"
		stroke-linecap="round" />
	<path d="M121.216 42.6423C121.216 42.6423 139.893 4.7054 186.91 1.86914" stroke="#8CC69D" stroke-width="2"
		stroke-linecap="round" />
	<path
		d="M121.269 42.5865L123.461 43.7687C123.627 43.8582 123.761 43.9907 123.848 44.1528C123.936 44.3149 123.975 44.501 123.96 44.6924C123.946 44.8838 123.88 45.0738 123.768 45.2431C123.656 45.4125 123.502 45.5554 123.322 45.6574L113.997 50.9406C113.817 51.0423 113.617 51.0996 113.418 51.1068C113.218 51.1139 113.026 51.0707 112.86 50.9815C112.695 50.8922 112.561 50.7601 112.474 50.5982C112.386 50.4364 112.347 50.2506 112.361 50.0594L113.093 40.1436C113.107 39.9522 113.174 39.7623 113.286 39.593C113.398 39.4237 113.552 39.2809 113.732 39.1789C113.912 39.077 114.112 39.0195 114.311 39.0122C114.511 39.0049 114.703 39.0481 114.869 39.1374L116.888 40.2255"
		stroke="#8CC69D" stroke-width="2" stroke-linecap="round" />
	<path d="M338 33V35H331V42H329V35H322V33H329V26H331V33H338Z" fill="#8CC69D" />
	<path d="M338 55V57H331V64H329V57H322V55H329V48H331V55H338Z" fill="#8CC69D" />
	<path d="M316 33V35H309V42H307V35H300V33H307V26H309V33H316Z" fill="#8CC69D" />
	<path d="M316 55V57H309V64H307V57H300V55H307V48H309V55H316Z" fill="#8CC69D" />
	<path d="M316 77V79H309V86H307V79H300V77H307V70H309V77H316Z" fill="#8CC69D" />
	<path d="M294 33V35H287V42H285V35H278V33H285V26H287V33H294Z" fill="#8CC69D" />
	<path d="M272 33V35H265V42H263V35H256V33H263V26H265V33H272Z" fill="#8CC69D" />
	<path d="M294 55V57H287V64H285V57H278V55H285V48H287V55H294Z" fill="#8CC69D" />
	<path d="M294 11V13H287V20H285V13H278V11H285V4H287V11H294Z" fill="#8CC69D" />
	<path d="M101 202V204H94V211H92V204H85V202H92V195H94V202H101Z" fill="#8CC69D" />
	<path d="M79 180V182H72V189H70V182H63V180H70V173H72V180H79Z" fill="#8CC69D" />
	<path d="M79 202V204H72V211H70V204H63V202H70V195H72V202H79Z" fill="#8CC69D" />
	<path d="M79 224V226H72V233H70V226H63V224H70V217H72V224H79Z" fill="#8CC69D" />
	<path d="M57 180V182H50V189H48V182H41V180H48V173H50V180H57Z" fill="#8CC69D" />
	<path d="M35 180V182H28V189H26V182H19V180H26V173H28V180H35Z" fill="#8CC69D" />
	<path d="M57 202V204H50V211H48V204H41V202H48V195H50V202H57Z" fill="#8CC69D" />
	<path d="M57 158V160H50V167H48V160H41V158H48V151H50V158H57Z" fill="#8CC69D" />
</svg>

<svg width="490" height="250" viewBox="0 0 490 250" fill="none" xmlns="http://www.w3.org/2000/svg"><path d="M303.07 202.234l71.483 41.307a20.002 20.002 0 0 0 20 0l76.014-43.887a20 20 0 0 0 10-17.32V94.561a20.005 20.005 0 0 0-10-17.32L427.5 52.374M271.5 184l21 12.129" stroke="#5452CE" stroke-width="2" stroke-linecap="round"/><path d="M308.09 175.611v-69.613a20.003 20.003 0 0 1 10-17.32l56.464-32.6a20.004 20.004 0 0 1 20 0l56.464 32.6a20.002 20.002 0 0 1 10 17.32v39.861M289.07 171.233l85.484 49.885a20.007 20.007 0 0 0 20 0L420 206.427m13.107-7.568l17.911-10.341a20 20 0 0 0 10-17.32v-12.339M390.5 245.359c-9 3-15.758 4.332-21.946.759l-30.228-17.64m-17.224-10.051c-19.691-11.493-47.032-27.193-47.032-27.193" stroke="#5452CE" stroke-width="2" stroke-linecap="round"/><path fill-rule="evenodd" clip-rule="evenodd" d="M386.107 117.853L328 179l58.107-94 57.683 94-57.683-61.147zm-26.18 41.523l9.286-9.812h33.628l9.286 9.812h-52.2zm15.894-16.64l10.272-10.524 10.13 10.524h-20.402z" fill="#D6D5FF"/><path d="M386.107 117.853l.727-.686-.725-.769-.727.766.725.689zM328 179l-.851-.526 1.576 1.215L328 179zm58.107-94l.852-.523-.849-1.384-.854 1.381.851.526zm57.683 94l-.727.686 1.579-1.209-.852.523zm-83.863-19.624l-.726-.687-1.597 1.687h2.323v-1zm9.286-9.812v-1h-.43l-.296.312.726.688zm33.628 0l.726-.688-.296-.312h-.43v1zm9.286 9.812v1h2.323l-1.597-1.687-.726.687zm-36.306-16.64l-.716-.699-1.658 1.699h2.374v-1zm10.272-10.524l.721-.693-.716-.743-.721.738.716.698zm10.13 10.524v1h2.35l-1.63-1.694-.72.694zm-10.841-25.572l-58.107 61.147 1.45 1.378 58.106-61.147-1.449-1.378zm-56.531 62.362l58.106-94-1.701-1.052-58.107 94 1.702 1.052zm56.403-94.003l57.684 94 1.704-1.046-57.683-94-1.705 1.046zm59.263 92.791l-57.683-61.147-1.455 1.372 57.684 61.147 1.454-1.372zm-83.863-18.251l9.286-9.812-1.453-1.375-9.286 9.813 1.453 1.374zm8.559-9.499h33.628v-2h-33.628v2zm32.902-.313l9.286 9.812 1.452-1.374-9.286-9.813-1.452 1.375zm10.012 8.125h-52.2v2h52.2v-2zm-35.591-14.942l10.273-10.523-1.432-1.397-10.272 10.523 1.431 1.397zm8.837-10.528l10.129 10.523 1.441-1.387-10.129-10.523-1.441 1.387zm10.85 8.83h-20.402v2h20.402v-2z" fill="#5452CE"/><path d="M95.383 131.737s22.638-13.509 36.831-38.092a427.167 427.167 0 0 0 19.856-38.247s-23.2 45.149-45.93 41c-8.871 24.928-10.757 35.339-10.757 35.339z" fill="#FEB8AE"/><path d="M168.571 120.508s23.258 8 51.713-51.016c-2.451 6.842-10.4 25.728-23.648 48.67-16.935 29.333-36.235 47.339-36.235 47.339s-7.768-2.345 8.17-44.993zM267.815 97.68s-15.986 37.289-28.971 27.048c-1.274 2.207-5.147 14.631-4.781 24.874.178 4.964 3.208-4.529 6.156-2 4.5-1.5 6.5-3 9.426-4 3.828-7.643 7.801-16.432 10.5-23.64 6.406-17.11 7.67-22.282 7.67-22.282z" fill="#D6D5FF"/><path d="M89.14 127.973l6.39-44.223M93.398 66.618c-1.709 10.756-6.59 48.7-7.832 58.544-1.242 9.844 6.764 9.034 13.292 3.964s28.156-19.034 52.212-73.728" stroke="#DE5846" stroke-width="2" stroke-linecap="round"/><path d="M60.534 144.098c-.348 6.635 13.58 28.17 43.3 12.387 29.72-15.783 51.944-47.755 72.446-89.5 13.013-26.495 11.284-45.42 3.42-52.188" stroke="#DE5846" stroke-width="2" stroke-linecap="round"/><path d="M92.05 166.207s36.355-3.283 76.187-72.274c15.745-27.271 31.275-67.69 10.906-79.451-20.369-11.761-63.489 33.909-83.628 112.72M116.987 159.732s-2.3 15.736 8.192 21.794 50.179-9.085 95.423-112.589" stroke="#DE5846" stroke-width="2" stroke-linecap="round"/><path d="M94.14 171.025s-2.356 23.124 14.439 32.821c15.878 9.167 47.227 22 103.652-60.784" stroke="#DE5846" stroke-width="2" stroke-linecap="round"/><path d="M222.25 127.762a225.006 225.006 0 0 0 11.547-21.188c13.979-28.878 27.265-68.438 13.038-76.652" stroke="#5452CE" stroke-width="2" stroke-linecap="round"/><path d="M135.398 216.654s43.176-1.621 95.846-92.849c10.123-17.534 39.837-79.883 15.589-93.882-6.619-3.821-15.499-.73-25.116 7.074m-63.762 121.164c4.305-27.215 16.799-57.24 31.58-81.56" stroke="#5452CE" stroke-width="2" stroke-linecap="round"/><path d="M163.078 207.124s37.7 60.322 106.189-42.565c29.33-44.058 27.812-81.138 19.828-85.746" stroke="#5452CE" stroke-width="2" stroke-linecap="round"/><path d="M207.719 227.798s31.7-3.3 67.535-60.43c29.649-47.264 26.386-81.322 14.4-88.24-21.854-12.614-56.942 39.75-55.611 70.474" stroke="#5452CE" stroke-width="2" stroke-linecap="round"/><path d="M183.719 189.359c.677 6.099 11.757 11.94 27.496 2.342m56.917-94.576c-6.093 18.102-12.761 34.101-18.917 46.477" stroke="#5452CE" stroke-width="2" stroke-linecap="round"/><path d="M63.698 88.035c-14.89-8.596-33.048-5.019-40.56 7.99-7.51 13.01-1.53 30.525 13.36 39.123 14.89 8.598 33.048 5.018 40.56-7.991 7.51-13.009 1.527-30.528-13.36-39.122z" stroke="#DE5846" stroke-width="2" stroke-linecap="round"/><path d="M62.365 89.729c-13.397-7.735-29.734-4.516-36.493 7.19-6.758 11.705-1.377 27.464 12.02 35.198 13.396 7.735 29.734 4.516 36.492-7.19 6.759-11.705 1.376-27.464-12.02-35.198z" stroke="#8CC69D" stroke-width="2" stroke-linecap="round"/><path d="M41.065 129.073c.596-2.286 5.933-24.856 5.933-24.856.084-.268.135-.417.575-.197 0 0 23.432 13.402 23.847 13.571.262.106.324.006.017-.253-1.989-1.666-27.957-21.639-27.957-21.639-.17-.148-.274-.072-.295.097 0 0-2.423 32.216-2.395 33.25.005.172.066.28.136.261.049-.013.1-.085.139-.234zm6.336-9.203l12.54-4.322a.15.15 0 0 0 .063-.22.148.148 0 0 0-.067-.054c-.12-.074-3.153-1.887-3.29-1.964a.481.481 0 0 0-.398-.034c-.122.042-8.012 2.687-8.138 2.731a.515.515 0 0 0-.286.361c-.03.157-.489 3.086-.53 3.259-.043.174.007.269.097.245l.01-.002z" fill="#FFE0DA"/><path d="M48.015 113.075c-.138.048-.21.02-.137-.288.073-.309.966-4.209.966-4.416 0-.208.168-.35.488-.165.32.185 4.087 2.326 4.29 2.44.203.113.408.358.23.419l-5.837 2.01z" fill="#FFE0DA"/><path d="M41.065 129.073c.596-2.286 5.933-24.856 5.933-24.856.084-.268.135-.417.575-.197 0 0 23.432 13.402 23.847 13.571.262.106.324.006.017-.253-1.989-1.666-27.957-21.639-27.957-21.639-.17-.148-.274-.072-.295.097 0 0-2.423 32.216-2.395 33.25.005.172.066.28.136.261.049-.013.1-.085.139-.234zm6.336-9.203l12.54-4.322a.15.15 0 0 0 .063-.22.148.148 0 0 0-.067-.054c-.12-.074-3.153-1.887-3.29-1.964a.481.481 0 0 0-.398-.034c-.122.042-8.012 2.687-8.138 2.731a.515.515 0 0 0-.286.361c-.03.157-.489 3.086-.53 3.259-.043.174.007.269.097.245l.01-.002z" stroke="#DE5846" stroke-width="2"/><path d="M48.015 113.075c-.138.048-.21.02-.137-.288.073-.309.966-4.209.966-4.416 0-.208.168-.35.488-.165.32.185 4.087 2.326 4.29 2.44.203.113.408.358.23.419l-5.837 2.01z" stroke="#DE5846" stroke-width="2"/><path d="M22.963 96.277s-3.06 4.9-3.561 5.765a25.026 25.026 0 0 0-2.622 17.977m2.73 7.495a34.086 34.086 0 0 0 13.25 13.648m3.804 1.906c14.054 6.025 29.874 2.022 36.757-9.895a17.4 17.4 0 0 0 1.287-2.532" stroke="#DE5846" stroke-width="2" stroke-linecap="round"/><path d="M204.699 180.463c-4.53-2.865 3.74-13.421 18.474-23.578 14.733-10.158 30.349-16.069 34.88-13.205 4.531 2.865-3.74 13.421-18.474 23.579-14.733 10.157-30.349 16.066-34.88 13.204z" stroke="#5452CE" stroke-width="2" stroke-linecap="round"/><path d="M255.485 147.043c-1.321 4.34-8.069 11.37-17.982 18.205-11.226 7.739-23.006 12.812-29.144 12.87" stroke="#8CC69D" stroke-width="2" stroke-linecap="round"/><path d="M204.246 180.122s7.358 7.722 9.193 8.904c1.665 1.072 4.811.894 8.862-.294m7.299-2.789a107.44 107.44 0 0 0 16.014-9.227m4.208-3.051c9.172-7.004 14.755-13.777 14.422-17.351-.075-.807-5.217-11.574-5.217-11.574M192.87 37.001c10.429-6.094 23.2-3.65 28.526 5.465 5.325 9.114 1.188 21.44-9.242 27.535-9.243 5.402-20.327 4.095-26.435-2.618" stroke="#5452CE" stroke-width="2" stroke-linecap="round"/><path d="M186.02 63.115c4.549 7.785 15.46 9.875 24.371 4.669 8.91-5.207 12.444-15.74 7.894-23.525-4.549-7.785-15.461-9.875-24.371-4.669a21.48 21.48 0 0 0-2.196 1.471" stroke="#8CC69D" stroke-width="2" stroke-linecap="round"/><path d="M192.281 30.824c9.855-4.284 21.207-1.586 26.086 6.763.73 1.246 2.064 3.376 2.064 3.376" stroke="#5452CE" stroke-width="2" stroke-linecap="round"/><path d="M249.468 223.17c-8.923 6.092-18.4 10.591-28.044 13.48M245.834 218.515s-33.052 33.332-81.881 14.493" stroke="#8CC69D" stroke-width="2" stroke-linecap="round"/><path d="M245.761 218.544l-1.789-2.336a1.275 1.275 0 0 1-.165-1.257 1.276 1.276 0 0 1 1.007-.772l11.436-1.498a1.27 1.27 0 0 1 1.336 1.743l-4.423 10.652a1.263 1.263 0 0 1-1.007.771 1.268 1.268 0 0 1-1.171-.486l-1.647-2.15M116.782 40.297c5.872-7.97 12.671-14.894 20.071-20.62M121.216 42.642S139.893 4.705 186.91 1.87" stroke="#8CC69D" stroke-width="2" stroke-linecap="round"/><path d="M121.269 42.587l2.192 1.182a.945.945 0 0 1 .499.923c-.014.192-.08.382-.192.551a1.31 1.31 0 0 1-.446.414l-9.325 5.284c-.18.101-.38.159-.579.166-.2.007-.392-.036-.558-.126a.946.946 0 0 1-.499-.922l.732-9.915c.014-.192.081-.382.193-.551a1.31 1.31 0 0 1 1.025-.58c.2-.008.392.035.558.124l2.019 1.088" stroke="#8CC69D" stroke-width="2" stroke-linecap="round"/><path d="M338 33v2h-7v7h-2v-7h-7v-2h7v-7h2v7h7zM338 55v2h-7v7h-2v-7h-7v-2h7v-7h2v7h7zM316 33v2h-7v7h-2v-7h-7v-2h7v-7h2v7h7zM316 55v2h-7v7h-2v-7h-7v-2h7v-7h2v7h7zM316 77v2h-7v7h-2v-7h-7v-2h7v-7h2v7h7zM294 33v2h-7v7h-2v-7h-7v-2h7v-7h2v7h7zM272 33v2h-7v7h-2v-7h-7v-2h7v-7h2v7h7zM294 55v2h-7v7h-2v-7h-7v-2h7v-7h2v7h7zM294 11v2h-7v7h-2v-7h-7v-2h7V4h2v7h7zM101 202v2h-7v7h-2v-7h-7v-2h7v-7h2v7h7zM79 180v2h-7v7h-2v-7h-7v-2h7v-7h2v7h7zM79 202v2h-7v7h-2v-7h-7v-2h7v-7h2v7h7zM79 224v2h-7v7h-2v-7h-7v-2h7v-7h2v7h7zM57 180v2h-7v7h-2v-7h-7v-2h7v-7h2v7h7zM35 180v2h-7v7h-2v-7h-7v-2h7v-7h2v7h7zM57 202v2h-7v7h-2v-7h-7v-2h7v-7h2v7h7zM57 158v2h-7v7h-2v-7h-7v-2h7v-7h2v7h7z" fill="#8CC69D"/></svg>
